X:302
T:Bitten Ear, The
M:C
C:© Paul Gitlitz 2010
K:D
"D"D3=F ^FAB2|dd2{=f}^f edBA|D3=F ^FAB2|"A7"EE2F E2FE|!
"D"D3=F ^FAB2|dd2{=f}^f edBA|d2B2"A7"AFE2|1"D"D D2 D-D2FE:|2"D"D D2 D-D2e2|!
|:"D"{=f}^f2{=f}^f2 edBA|de=f^f- fABA|{=f}^f2{=f}^f2 edBA|defe- "A"eABA|!
"D"{=f}^f2{=f}^f2 edBA|de=f^f- fa3|bafd "A"edBA|"D"Bd2d-d4:|
